;1003Escucheon
;Printer name: Creality Ender 3 V2
;Print time: 0s
;Bed temp: 0
;Layer count: 0
;Width: 220mm
;Depth: 220mm
;Height: 250mm
;Center x: 110mm
;Center y: 110mm
;Center z: 0mm
;Count of bodies: 1
;Fusion version: 2.0.11415
G21
;--------------------------------
;Selected Profile: PLA 1.75mm, 0.4mm Nozzle
;Selected Printer: Creality, Ender 3 V2
;--------------------------------
T0
M140 S65
M105
M190 S65
M104 S210 T0
M105
M109 S210 T0
G0 F6000
G90
M82
;Reset multiplier
M220 S100
M221 S100
;Enable auto bed leveling
M420 S1 Z2
G28
G1 Z10
G92 E0
G0 X10 Y10 Z10
G92 E0
;--------------------------------
;Layer : 1 of 0
M107
;rapid-leaky
G0 X20.085 Y0.115 Z0.3 F6000
;bead-skirt/brim
;rapid-leaky
G0 X20.094 Y0.69 F6000
;bead-skirt/brim
;rapid-leaky
G0 X20.103 Y1.265 F6000
;bead-skirt/brim
;rapid-leaky
G0 X20.113 Y1.84 F6000
;bead-skirt/brim
;rapid-leaky
G0 X20.122 Y2.416 F6000
;bead-skirt/brim
;rapid-leaky
G0 X20.131 Y2.991 F6000
;bead-skirt/brim
;rapid-dry
G0 X20.149 Y4.09 F6000
;bead-perimeter_inner
;rapid-leaky
G0 X20.195 Y4.588 F6000
;bead-solid_infill
;rapid-leaky
G0 X214.249 Y201.854 F6000
;bead-perimeter_outer
;Layer : 2 of 0
M106 S255
;rapid-leaky
G0 X214.013 Y201.575 Z0.5 F6000
;bead-perimeter_inner
;rapid-leaky
G0 X214.251 Y201.852 F6000
;bead-perimeter_outer
;rapid-leaky
G0 X215.239 Y200.044 F6000
;bead-solid_infill
;rapid-dry
G0 X106.397 Y91.201 F6000
;bead-solid_infill
;Layer : 3 of 0
;rapid-leaky
G0 X185.018 Y207.022 Z0.7 F6000
;bead-perimeter_inner
;rapid-leaky
G0 X184.78 Y207.299 F6000
;bead-perimeter_outer
;rapid-dry
G0 X213.62 Y201.486 F6000
;bead-solid_infill
;Layer : 4 of 0
;rapid-leaky
G0 X20.149 Y4.09 Z0.9 F6000
;bead-perimeter_inner
;rapid-leaky
G0 X20.141 Y3.566 F6000
;bead-perimeter_outer
;rapid-leaky
G0 X17.771 Y7.275 F6000
;bead-sparse_infill
;rapid-leaky
G0 X10.9 Y31.143 F6000
;bead-sparse_infill
;Layer : 5 of 0
;rapid-leaky
G0 X125.889 Y115.232 Z1.1 F6000
;bead-perimeter_inner
;rapid-leaky
G0 X125.714 Y114.912 F6000
;bead-perimeter_outer
;rapid-leaky
G0 X123.531 Y116.604 F6000
;bead-sparse_infill
;rapid-dry
G0 X131.139 Y115.532 F6000
;bead-sparse_infill
;Layer : 6 of 0
;rapid-leaky
G0 X209.41 Y205.102 Z1.3 F6000
;bead-perimeter_inner
;rapid-leaky
G0 X209.614 Y205.405 F6000
;bead-perimeter_outer
;rapid-leaky
G0 X125.858 Y115.606 F6000
;bead-sparse_infill
;rapid-leaky
G0 X17.771 Y7.275 F6000
;bead-sparse_infill
;Layer : 7 of 0
;rapid-leaky
G0 X103.495 Y105.956 Z1.5 F6000
;bead-perimeter_inner
;rapid-leaky
G0 X103.845 Y105.853 F6000
;bead-perimeter_outer
;rapid-leaky
G0 X15.107 Y10.865 F6000
;bead-sparse_infill
;rapid-leaky
G0 X131.139 Y115.532 F6000
;bead-sparse_infill
;Layer : 8 of 0
;rapid-leaky
G0 X209.426 Y205.091 Z1.7 F6000
;bead-perimeter_inner
;rapid-leaky
G0 X209.63 Y205.394 F6000
;bead-perimeter_outer
;rapid-leaky
G0 X125.858 Y115.606 F6000
;bead-sparse_infill
;rapid-leaky
G0 X17.771 Y7.275 F6000
;bead-sparse_infill
;Layer : 9 of 0
;rapid-leaky
G0 X103.495 Y105.956 Z1.9 F6000
;bead-perimeter_inner
;rapid-leaky
G0 X103.845 Y105.853 F6000
;bead-perimeter_outer
;rapid-leaky
G0 X15.107 Y10.865 F6000
;bead-sparse_infill
;rapid-leaky
G0 X131.139 Y115.532 F6000
;bead-sparse_infill
;Layer : 10 of 0
;rapid-leaky
G0 X209.442 Y205.081 Z2.1 F6000
;bead-perimeter_inner
;rapid-leaky
G0 X209.645 Y205.384 F6000
;bead-perimeter_outer
;rapid-leaky
G0 X125.858 Y115.606 F6000
;bead-sparse_infill
;rapid-leaky
G0 X17.771 Y7.275 F6000
;bead-sparse_infill
;Layer : 11 of 0
;rapid-leaky
G0 X103.495 Y105.956 Z2.3 F6000
;bead-perimeter_inner
;rapid-leaky
G0 X103.845 Y105.853 F6000
;bead-perimeter_outer
;rapid-leaky
G0 X15.107 Y10.865 F6000
;bead-sparse_infill
;rapid-leaky
G0 X131.139 Y115.532 F6000
;bead-sparse_infill
;Layer : 12 of 0
;rapid-leaky
G0 X209.457 Y205.07 Z2.5 F6000
;bead-perimeter_inner
;rapid-leaky
G0 X209.66 Y205.373 F6000
;bead-perimeter_outer
;rapid-leaky
G0 X125.858 Y115.606 F6000
;bead-sparse_infill
;rapid-leaky
G0 X17.771 Y7.275 F6000
;bead-sparse_infill
;Layer : 13 of 0
;rapid-leaky
G0 X103.495 Y105.956 Z2.7 F6000
;bead-perimeter_inner
;rapid-leaky
G0 X103.845 Y105.853 F6000
;bead-perimeter_outer
;rapid-leaky
G0 X15.107 Y10.865 F6000
;bead-sparse_infill
;rapid-leaky
G0 X131.139 Y115.532 F6000
;bead-sparse_infill
;Layer : 14 of 0
;rapid-leaky
G0 X209.227 Y205.224 Z2.9 F6000
;bead-perimeter_inner
;rapid-leaky
G0 X209.429 Y205.528 F6000
;bead-perimeter_outer
;rapid-leaky
G0 X125.858 Y115.606 F6000
;bead-sparse_infill
;rapid-leaky
G0 X17.771 Y7.275 F6000
;bead-sparse_infill
;Layer : 15 of 0
;rapid-leaky
G0 X103.495 Y105.956 Z3.1 F6000
;bead-perimeter_inner
;rapid-leaky
G0 X103.845 Y105.853 F6000
;bead-perimeter_outer
;rapid-leaky
G0 X15.107 Y10.865 F6000
;bead-sparse_infill
;rapid-leaky
G0 X131.139 Y115.532 F6000
;bead-sparse_infill
;Layer : 16 of 0
;rapid-leaky
G0 X209.488 Y205.049 Z3.3 F6000
;bead-perimeter_inner
;rapid-leaky
G0 X209.692 Y205.351 F6000
;bead-perimeter_outer
;rapid-leaky
G0 X125.858 Y115.606 F6000
;bead-sparse_infill
;rapid-leaky
G0 X17.771 Y7.275 F6000
;bead-sparse_infill
;Layer : 17 of 0
;rapid-leaky
G0 X103.495 Y105.956 Z3.5 F6000
;bead-perimeter_inner
;rapid-leaky
G0 X103.845 Y105.853 F6000
;bead-perimeter_outer
;rapid-leaky
G0 X15.107 Y10.865 F6000
;bead-sparse_infill
;rapid-leaky
G0 X131.139 Y115.532 F6000
;bead-sparse_infill
;Layer : 18 of 0
;rapid-leaky
G0 X209.503 Y205.039 Z3.7 F6000
;bead-perimeter_inner
;rapid-leaky
G0 X209.708 Y205.341 F6000
;bead-perimeter_outer
;rapid-leaky
G0 X125.858 Y115.606 F6000
;bead-sparse_infill
;rapid-leaky
G0 X17.771 Y7.275 F6000
;bead-sparse_infill
;Layer : 19 of 0
;rapid-leaky
G0 X103.495 Y105.956 Z3.9 F6000
;bead-perimeter_inner
;rapid-leaky
G0 X103.845 Y105.853 F6000
;bead-perimeter_outer
;rapid-leaky
G0 X15.107 Y10.865 F6000
;bead-sparse_infill
;rapid-leaky
G0 X131.139 Y115.532 F6000
;bead-sparse_infill
;Layer : 20 of 0
;rapid-leaky
G0 X209.518 Y205.028 Z4.1 F6000
;bead-perimeter_inner
;rapid-leaky
G0 X209.723 Y205.33 F6000
;bead-perimeter_outer
;rapid-leaky
G0 X125.858 Y115.606 F6000
;bead-sparse_infill
;rapid-leaky
G0 X17.771 Y7.275 F6000
;bead-sparse_infill
;Layer : 21 of 0
;rapid-leaky
G0 X103.495 Y105.956 Z4.3 F6000
;bead-perimeter_inner
;rapid-leaky
G0 X103.845 Y105.853 F6000
;bead-perimeter_outer
;rapid-leaky
G0 X15.107 Y10.865 F6000
;bead-sparse_infill
;rapid-leaky
G0 X131.139 Y115.532 F6000
;bead-sparse_infill
;Layer : 22 of 0
;rapid-leaky
G0 X209.532 Y205.019 Z4.5 F6000
;bead-perimeter_inner
;rapid-leaky
G0 X209.738 Y205.32 F6000
;bead-perimeter_outer
;rapid-leaky
G0 X212.544 Y202.383 F6000
;bead-sparse_infill
;rapid-dry
G0 X143.775 Y163.434 F6000
;bead-sparse_infill
;rapid-leaky
G0 X191.161 Y175.966 F6000
;bead-solid_infill
;rapid-dry
G0 X44.07 Y29.388 F6000
;bead-sparse_infill
;rapid-leaky
G0 X55.901 Y77.475 F6000
;bead-solid_infill
;rapid-leaky
G0 X42.582 Y27.386 F6000
;bead-solid_infill
;rapid-leaky
G0 X10.9 Y31.143 F6000
;bead-sparse_infill
;rapid-dry
G0 X75.497 Y61.37 F6000
;bead-sparse_infill
;rapid-leaky
G0 X113.949 Y116.811 F6000
;bead-sparse_infill
;Layer : 23 of 0
;rapid-leaky
G0 X128.622 Y113.334 Z4.7 F6000
;bead-perimeter_inner
;rapid-leaky
G0 X128.383 Y113.058 F6000
;bead-perimeter_outer
;rapid-leaky
G0 X131.139 Y115.532 F6000
;bead-sparse_infill
;rapid-leaky
G0 X159.636 Y144.03 F6000
;bead-solid_infill
;rapid-leaky
G0 X160.84 Y146.816 F6000
;bead-sparse_infill
;rapid-leaky
G0 X172.719 Y194.304 F6000
;bead-solid_infill
;rapid-leaky
G0 X208.947 Y205.02 F6000
;bead-sparse_infill
;rapid-dry
G0 X123.531 Y116.604 F6000
;bead-sparse_infill
;rapid-dry
G0 X73.376 Y58.989 F6000
;bead-sparse_infill
;rapid-dry
G0 X42.269 Y26.662 F6000
;bead-sparse_infill
;rapid-leaky
G0 X24.227 Y45.811 F6000
;bead-solid_infill
;rapid-leaky
G0 X55.905 Y77.49 F6000
;bead-solid_infill
;Layer : 24 of 0
;rapid-leaky
G0 X14.13 Y36.167 Z4.9 F6000
;bead-perimeter_inner
;rapid-leaky
G0 X41.786 Y27.17 F6000
;bead-sparse_infill
;rapid-leaky
G0 X13.874 Y36.427 F6000
;bead-perimeter_outer
;rapid-leaky
G0 X56.405 Y75.959 F6000
;bead-sparse_infill
;rapid-leaky
G0 X44.267 Y29.071 F6000
;bead-solid_infill
;rapid-dry
G0 X75.848 Y61.464 F6000
;bead-sparse_infill
;rapid-leaky
G0 X140.849 Y162.423 F6000
;bead-solid_infill
;rapid-dry
G0 X212.544 Y202.383 F6000
;bead-sparse_infill
;rapid-dry
G0 X172.553 Y194.127 F6000
;bead-solid_infill
;rapid-leaky
G0 X190.347 Y175.769 F6000
;bead-sparse_infill
;rapid-dry
G0 X128.454 Y113.881 F6000
;bead-sparse_infill
;Layer : 25 of 0
;rapid-leaky
G0 X114.044 Y116.505 Z5.1 F6000
;bead-perimeter_inner
;rapid-leaky
G0 X114.147 Y116.155 F6000
;bead-perimeter_outer
;rapid-dry
G0 X123.531 Y116.604 F6000
;bead-sparse_infill
;rapid-dry
G0 X74.742 Y58.683 F6000
;bead-perimeter_inner
;rapid-leaky
G0 X75.258 F6000
;bead-perimeter_outer
;rapid-leaky
G0 X73.376 Y58.989 F6000
;bead-sparse_infill
;rapid-dry
G0 X43.038 Y26.979 F6000
;bead-perimeter_inner
;rapid-leaky
G0 X43.554 F6000
;bead-perimeter_outer
;rapid-leaky
G0 X42.269 Y26.662 F6000
;bead-sparse_infill
;rapid-dry
G0 X131.139 Y115.532 F6000
;bead-sparse_infill
;rapid-dry
G0 X161.326 Y145.267 F6000
;bead-perimeter_inner
;rapid-leaky
G0 X141.762 Y164.316 F6000
;bead-perimeter_outer
;rapid-leaky
G0 X142.737 Y164.323 F6000
;bead-solid_infill
;rapid-leaky
G0 X160.84 Y146.816 F6000
;bead-sparse_infill
;rapid-dry
G0 X173.982 Y196.02 F6000
;bead-perimeter_inner
;rapid-leaky
G0 X173.466 F6000
;bead-perimeter_outer
;rapid-leaky
G0 X175.675 Y197.261 F6000
;bead-sparse_infill
;Layer : 26 of 0
;rapid-leaky
G0 X209.565 Y204.996 Z5.3 F6000
;bead-perimeter_inner
;rapid-leaky
G0 X209.77 Y205.298 F6000
;bead-perimeter_outer
;rapid-leaky
G0 X212.544 Y202.383 F6000
;bead-sparse_infill
;rapid-dry
G0 X172.346 Y194.384 F6000
;bead-perimeter_inner
;rapid-leaky
G0 Y194.9 F6000
;bead-perimeter_outer
;rapid-leaky
G0 X190.381 Y175.897 F6000
;bead-sparse_infill
;rapid-dry
G0 X140.642 Y162.68 F6000
;bead-perimeter_inner
;rapid-leaky
G0 Y163.196 F6000
;bead-perimeter_outer
;rapid-leaky
G0 X141.428 Y161.441 F6000
;bead-sparse_infill
;rapid-dry
G0 X74.519 Y58.46 F6000
;bead-perimeter_inner
;rapid-leaky
G0 X75.035 F6000
;bead-perimeter_outer
;rapid-leaky
G0 X56.534 Y75.994 F6000
;bead-sparse_infill
;rapid-dry
G0 X42.815 Y26.756 F6000
;bead-perimeter_inner
;rapid-leaky
G0 X43.331 F6000
;bead-perimeter_outer
;rapid-leaky
G0 X41.82 Y27.298 F6000
;bead-sparse_infill
;rapid-dry
G0 X113.949 Y116.811 F6000
;bead-sparse_infill
;Layer : 27 of 0
;rapid-leaky
G0 X128.622 Y113.334 Z5.5 F6000
;bead-perimeter_inner
;rapid-leaky
G0 X128.383 Y113.058 F6000
;bead-perimeter_outer
;rapid-leaky
G0 X131.139 Y115.532 F6000
;bead-sparse_infill
;rapid-dry
G0 X161.666 Y145.607 F6000
;bead-perimeter_inner
;rapid-leaky
G0 Y145.091 F6000
;bead-perimeter_outer
;rapid-leaky
G0 X160.855 Y146.871 F6000
;bead-sparse_infill
;rapid-dry
G0 X174.322 Y196.36 F6000
;bead-perimeter_inner
;rapid-leaky
G0 X173.806 F6000
;bead-perimeter_outer
;rapid-leaky
G0 X175.675 Y197.262 F6000
;bead-sparse_infill
;rapid-dry
G0 X123.531 Y116.604 F6000
;bead-sparse_infill
;rapid-dry
G0 X74.403 Y58.344 F6000
;bead-perimeter_inner
;rapid-leaky
G0 X74.919 F6000
;bead-perimeter_outer
;rapid-leaky
G0 X73.321 Y58.974 F6000
;bead-sparse_infill
;rapid-dry
G0 X42.699 Y26.639 F6000
;bead-perimeter_inner
;rapid-leaky
G0 X43.215 F6000
;bead-perimeter_outer
;rapid-leaky
G0 X22.434 Y44.021 F6000
;bead-sparse_infill
;Layer : 28 of 0
;rapid-leaky
G0 X15.083 Y10.319 Z5.7 F6000
;bead-perimeter_inner
;rapid-leaky
G0 X14.781 Y10.113 F6000
;bead-perimeter_outer
;rapid-leaky
G0 X10.9 Y31.143 F6000
;bead-sparse_infill
;rapid-dry
G0 X44.861 Y28.802 F6000
;bead-perimeter_inner
;rapid-leaky
G0 Y28.286 F6000
;bead-perimeter_outer
;rapid-leaky
G0 X44.306 Y29.81 F6000
;bead-sparse_infill
;rapid-dry
G0 X57.517 Y79.555 F6000
;bead-perimeter_inner
;rapid-leaky
G0 X57.001 F6000
;bead-perimeter_outer
;rapid-leaky
G0 X76.015 Y61.508 F6000
;bead-sparse_infill
;rapid-dry
G0 X142.688 Y164.726 F6000
;bead-perimeter_inner
;rapid-leaky
G0 X142.172 F6000
;bead-perimeter_outer
;rapid-leaky
G0 X143.914 Y163.953 F6000
;bead-sparse_infill
;rapid-dry
G0 X193.441 Y177.382 F6000
;bead-perimeter_inner
;rapid-leaky
G0 Y176.866 F6000
;bead-perimeter_outer
;rapid-leaky
G0 X212.544 Y202.383 F6000
;bead-sparse_infill
;rapid-dry
G0 X128.454 Y113.881 F6000
;bead-sparse_infill
;Layer : 29 of 0
;rapid-leaky
G0 X114.044 Y116.505 Z5.9 F6000
;bead-perimeter_inner
;rapid-leaky
G0 X114.147 Y116.155 F6000
;bead-perimeter_outer
;rapid-dry
G0 X123.531 Y116.604 F6000
;bead-sparse_infill
;rapid-dry
G0 X74.29 Y58.231 F6000
;bead-perimeter_inner
;rapid-leaky
G0 X74.806 F6000
;bead-perimeter_outer
;rapid-leaky
G0 X73.142 Y58.926 F6000
;bead-sparse_infill
;rapid-dry
G0 X42.586 Y26.527 F6000
;bead-perimeter_inner
;rapid-leaky
G0 X43.102 F6000
;bead-perimeter_outer
;rapid-leaky
G0 X15.107 Y10.865 F6000
;bead-sparse_infill
;rapid-dry
G0 X131.139 Y115.532 F6000
;bead-sparse_infill
;rapid-dry
G0 X161.779 Y145.72 F6000
;bead-perimeter_inner
;rapid-leaky
G0 Y145.204 F6000
;bead-perimeter_outer
;rapid-leaky
G0 X160.902 Y147.049 F6000
;bead-sparse_infill
;rapid-dry
G0 X193.483 Y177.424 F6000
;bead-perimeter_inner
;rapid-leaky
G0 Y176.908 F6000
;bead-perimeter_outer
;rapid-leaky
G0 X175.675 Y197.261 F6000
;bead-sparse_infill
;Layer : 30 of 0
;rapid-leaky
G0 X209.596 Y204.976 Z6.1 F6000
;bead-perimeter_inner
;rapid-leaky
G0 X209.802 Y205.278 F6000
;bead-perimeter_outer
;rapid-leaky
G0 X212.544 Y202.383 F6000
;bead-sparse_infill
;rapid-dry
G0 X172.098 Y194.136 F6000
;bead-perimeter_inner
;rapid-leaky
G0 Y194.652 F6000
;bead-perimeter_outer
;rapid-leaky
G0 X190.276 Y175.506 F6000
;bead-sparse_infill
;rapid-dry
G0 X140.394 Y162.432 F6000
;bead-perimeter_inner
;rapid-leaky
G0 Y162.948 F6000
;bead-perimeter_outer
;rapid-leaky
G0 X141.324 Y161.05 F6000
;bead-sparse_infill
;rapid-dry
G0 X74.271 Y58.212 F6000
;bead-perimeter_inner
;rapid-leaky
G0 X74.787 F6000
;bead-perimeter_outer
;rapid-leaky
G0 X56.142 Y75.889 F6000
;bead-sparse_infill
;rapid-dry
G0 X42.567 Y26.508 F6000
;bead-perimeter_inner
;rapid-leaky
G0 X43.083 F6000
;bead-perimeter_outer
;rapid-leaky
G0 X41.686 Y26.936 F6000
;bead-sparse_infill
;rapid-dry
G0 X113.949 Y116.811 F6000
;bead-sparse_infill
;Layer : 31 of 0
;rapid-leaky
G0 X128.622 Y113.334 Z6.3 F6000
;bead-perimeter_inner
;rapid-leaky
G0 X128.383 Y113.058 F6000
;bead-perimeter_outer
;rapid-leaky
G0 X131.139 Y115.532 F6000
;bead-sparse_infill
;rapid-dry
G0 X161.779 Y145.72 F6000
;bead-perimeter_inner
;rapid-leaky
G0 Y145.204 F6000
;bead-perimeter_outer
;rapid-leaky
G0 X160.902 Y147.049 F6000
;bead-sparse_infill
;rapid-dry
G0 X193.483 Y177.424 F6000
;bead-perimeter_inner
;rapid-leaky
G0 Y176.908 F6000
;bead-perimeter_outer
;rapid-leaky
G0 X208.945 Y205.015 F6000
;bead-sparse_infill
;rapid-dry
G0 X123.531 Y116.604 F6000
;bead-sparse_infill
;rapid-dry
G0 X74.29 Y58.231 F6000
;bead-perimeter_inner
;rapid-leaky
G0 X74.806 F6000
;bead-perimeter_outer
;rapid-leaky
G0 X73.142 Y58.926 F6000
;bead-sparse_infill
;rapid-dry
G0 X42.586 Y26.527 F6000
;bead-perimeter_inner
;rapid-leaky
G0 X43.102 F6000
;bead-perimeter_outer
;rapid-leaky
G0 X22.434 Y44.021 F6000
;bead-sparse_infill
;Layer : 32 of 0
;rapid-leaky
G0 X15.083 Y10.319 Z6.5 F6000
;bead-perimeter_inner
;rapid-leaky
G0 X14.781 Y10.113 F6000
;bead-perimeter_outer
;rapid-leaky
G0 X10.9 Y31.143 F6000
;bead-sparse_infill
;rapid-dry
G0 X44.861 Y28.802 F6000
;bead-perimeter_inner
;rapid-leaky
G0 Y28.286 F6000
;bead-perimeter_outer
;rapid-leaky
G0 X44.306 Y29.81 F6000
;bead-sparse_infill
;rapid-dry
G0 X57.517 Y79.555 F6000
;bead-perimeter_inner
;rapid-leaky
G0 X57.001 F6000
;bead-perimeter_outer
;rapid-leaky
G0 X76.015 Y61.508 F6000
;bead-sparse_infill
;rapid-dry
G0 X142.688 Y164.726 F6000
;bead-perimeter_inner
;rapid-leaky
G0 X142.172 F6000
;bead-perimeter_outer
;rapid-leaky
G0 X143.914 Y163.953 F6000
;bead-sparse_infill
;rapid-dry
G0 X193.441 Y177.382 F6000
;bead-perimeter_inner
;rapid-leaky
G0 Y176.866 F6000
;bead-perimeter_outer
;rapid-leaky
G0 X212.543 Y202.382 F6000
;bead-sparse_infill
;rapid-dry
G0 X128.454 Y113.881 F6000
;bead-sparse_infill
;Layer : 33 of 0
;rapid-leaky
G0 X114.044 Y116.505 Z6.7 F6000
;bead-perimeter_inner
;rapid-leaky
G0 X114.147 Y116.155 F6000
;bead-perimeter_outer
;rapid-dry
G0 X123.531 Y116.604 F6000
;bead-sparse_infill
;rapid-dry
G0 X74.403 Y58.344 F6000
;bead-perimeter_inner
;rapid-leaky
G0 X74.919 F6000
;bead-perimeter_outer
;rapid-leaky
G0 X73.32 Y58.974 F6000
;bead-sparse_infill
;rapid-dry
G0 X42.699 Y26.639 F6000
;bead-perimeter_inner
;rapid-leaky
G0 X43.215 F6000
;bead-perimeter_outer
;rapid-leaky
G0 X15.107 Y10.865 F6000
;bead-sparse_infill
;rapid-dry
G0 X131.139 Y115.532 F6000
;bead-sparse_infill
;rapid-dry
G0 X161.666 Y145.607 F6000
;bead-perimeter_inner
;rapid-leaky
G0 Y145.091 F6000
;bead-perimeter_outer
;rapid-leaky
G0 X160.855 Y146.871 F6000
;bead-sparse_infill
;rapid-dry
G0 X174.322 Y196.36 F6000
;bead-perimeter_inner
;rapid-leaky
G0 X173.806 F6000
;bead-perimeter_outer
;rapid-leaky
G0 X175.675 Y197.262 F6000
;bead-sparse_infill
;Layer : 34 of 0
;rapid-leaky
G0 X209.627 Y204.954 Z6.9 F6000
;bead-perimeter_inner
;rapid-leaky
G0 X209.832 Y205.256 F6000
;bead-perimeter_outer
;rapid-leaky
G0 X212.543 Y202.382 F6000
;bead-sparse_infill
;rapid-dry
G0 X172.346 Y194.384 F6000
;bead-perimeter_inner
;rapid-leaky
G0 Y194.9 F6000
;bead-perimeter_outer
;rapid-leaky
G0 X190.381 Y175.897 F6000
;bead-sparse_infill
;rapid-dry
G0 X140.642 Y162.68 F6000
;bead-perimeter_inner
;rapid-leaky
G0 Y163.196 F6000
;bead-perimeter_outer
;rapid-leaky
G0 X141.428 Y161.441 F6000
;bead-sparse_infill
;rapid-dry
G0 X74.519 Y58.46 F6000
;bead-perimeter_inner
;rapid-leaky
G0 X75.035 F6000
;bead-perimeter_outer
;rapid-leaky
G0 X56.534 Y75.994 F6000
;bead-sparse_infill
;rapid-dry
G0 X42.815 Y26.756 F6000
;bead-perimeter_inner
;rapid-leaky
G0 X43.331 F6000
;bead-perimeter_outer
;rapid-leaky
G0 X41.82 Y27.298 F6000
;bead-sparse_infill
;rapid-dry
G0 X113.949 Y116.811 F6000
;bead-sparse_infill
;Layer : 35 of 0
;rapid-leaky
G0 X128.622 Y113.334 Z7.1 F6000
;bead-perimeter_inner
;rapid-leaky
G0 X128.383 Y113.058 F6000
;bead-perimeter_outer
;rapid-leaky
G0 X131.139 Y115.532 F6000
;bead-sparse_infill
;rapid-dry
G0 X161.326 Y145.267 F6000
;bead-perimeter_inner
;rapid-leaky
G0 Y144.751 F6000
;bead-perimeter_outer
;rapid-leaky
G0 X160.711 Y146.335 F6000
;bead-sparse_infill
;rapid-dry
G0 X173.982 Y196.02 F6000
;bead-perimeter_inner
;rapid-leaky
G0 X173.466 F6000
;bead-perimeter_outer
;rapid-leaky
G0 X208.947 Y205.02 F6000
;bead-sparse_infill
;rapid-dry
G0 X123.531 Y116.604 F6000
;bead-sparse_infill
;rapid-dry
G0 X74.742 Y58.683 F6000
;bead-perimeter_inner
;rapid-leaky
G0 X75.258 F6000
;bead-perimeter_outer
;rapid-leaky
G0 X74.196 Y58.59 F6000
;bead-sparse_infill
;rapid-dry
G0 X23.99 Y46.028 F6000
;bead-perimeter_inner
;rapid-leaky
G0 Y46.544 F6000
;bead-perimeter_outer
;rapid-leaky
G0 X42.269 Y26.662 F6000
;bead-sparse_infill
;Layer : 36 of 0
;rapid-leaky
G0 X15.083 Y10.319 Z7.3 F6000
;bead-perimeter_inner
;rapid-leaky
G0 X14.781 Y10.113 F6000
;bead-perimeter_outer
;rapid-leaky
G0 X10.9 Y31.143 F6000
;bead-sparse_infill
;rapid-leaky
G0 X42.796 Y27.737 F6000
;bead-bridge
;rapid-leaky
G0 X26.654 Y46.239 F6000
;bead-sparse_infill
;rapid-leaky
G0 X74.5 Y59.441 F6000
;bead-bridge
;rapid-leaky
G0 X75.051 Y61.25 F6000
;bead-sparse_infill
;rapid-leaky
G0 X141.569 Y162.715 F6000
;bead-bridge
;rapid-leaky
G0 X160.626 Y146.017 F6000
;bead-sparse_infill
;rapid-leaky
G0 X173.273 Y194.419 F6000
;bead-bridge
;rapid-leaky
G0 X212.544 Y202.383 F6000
;bead-sparse_infill
;rapid-dry
G0 X128.454 Y113.881 F6000
;bead-sparse_infill
;Layer : 37 of 0
;rapid-leaky
G0 X114.044 Y116.505 Z7.5 F6000
;bead-perimeter_inner
;rapid-leaky
G0 X114.147 Y116.155 F6000
;bead-perimeter_outer
;rapid-dry
G0 X15.107 Y10.865 F6000
;bead-sparse_infill
;rapid-leaky
G0 X43.105 Y27.499 F6000
;bead-solid_infill
;rapid-leaky
G0 X26.654 Y46.239 F6000
;bead-sparse_infill
;rapid-leaky
G0 X56.188 Y77.773 F6000
;bead-solid_infill
;rapid-leaky
G0 X76.672 Y61.065 F6000
;bead-sparse_infill
;rapid-leaky
G0 X131.139 Y115.532 F6000
;bead-sparse_infill
;rapid-leaky
G0 X160.202 Y144.596 F6000
;bead-solid_infill
;rapid-leaky
G0 X160.626 Y146.017 F6000
;bead-sparse_infill
;rapid-leaky
G0 X173.285 Y194.869 F6000
;bead-solid_infill
;rapid-leaky
G0 X193.033 Y177.427 F6000
;bead-sparse_infill
;Layer : 38 of 0
;rapid-leaky
G0 X209.659 Y204.933 Z7.7 F6000
;bead-perimeter_inner
;rapid-leaky
G0 X209.864 Y205.235 F6000
;bead-perimeter_outer
;rapid-leaky
G0 X212.543 Y202.382 F6000
;bead-sparse_infill
;rapid-dry
G0 X173.059 Y194.633 F6000
;bead-solid_infill
;rapid-leaky
G0 X173.59 Y193.537 F6000
;bead-sparse_infill
;rapid-dry
G0 X56.184 Y77.758 F6000
;bead-solid_infill
;rapid-leaky
G0 X73.981 Y59.394 F6000
;bead-sparse_infill
;rapid-dry
G0 X24.48 Y46.054 F6000
;bead-solid_infill
;rapid-leaky
G0 X42 Y27.968 F6000
;bead-sparse_infill
;rapid-dry
G0 X75.051 Y61.25 F6000
;bead-sparse_infill
;rapid-leaky
G0 X113.949 Y116.811 F6000
;bead-sparse_infill
;Layer : 39 of 0
;rapid-leaky
G0 X128.622 Y113.334 Z7.9 F6000
;bead-perimeter_inner
;rapid-leaky
G0 X128.383 Y113.058 F6000
;bead-perimeter_outer
;rapid-leaky
G0 X131.139 Y115.532 F6000
;bead-sparse_infill
;rapid-leaky
G0 X123.531 Y116.604 F6000
;bead-sparse_infill
;Layer : 40 of 0
;rapid-leaky
G0 X15.083 Y10.319 Z8.1 F6000
;bead-perimeter_inner
;rapid-leaky
G0 X14.781 Y10.113 F6000
;bead-perimeter_outer
;rapid-leaky
G0 X17.771 Y7.275 F6000
;bead-sparse_infill
;rapid-leaky
G0 X10.899 Y31.143 F6000
;bead-sparse_infill
;Layer : 41 of 0
;rapid-leaky
G0 X125.889 Y115.232 Z8.3 F6000
;bead-perimeter_inner
;rapid-leaky
G0 X125.714 Y114.912 F6000
;bead-perimeter_outer
;rapid-leaky
G0 X123.531 Y116.604 F6000
;bead-sparse_infill
;rapid-dry
G0 X131.139 Y115.532 F6000
;bead-sparse_infill
;Layer : 42 of 0
;rapid-leaky
G0 X208.607 Y205.629 Z8.5 F6000
;bead-perimeter_inner
;rapid-leaky
G0 X208.805 Y205.936 F6000
;bead-perimeter_outer
;rapid-leaky
G0 X125.858 Y115.606 F6000
;bead-sparse_infill
;rapid-leaky
G0 X17.771 Y7.275 F6000
;bead-sparse_infill
;Layer : 43 of 0
;rapid-leaky
G0 X103.495 Y105.956 Z8.7 F6000
;bead-perimeter_inner
;rapid-leaky
G0 X103.845 Y105.853 F6000
;bead-perimeter_outer
;rapid-leaky
G0 X15.107 Y10.865 F6000
;bead-sparse_infill
;rapid-leaky
G0 X131.139 Y115.532 F6000
;bead-sparse_infill
;Layer : 44 of 0
;rapid-leaky
G0 X208.626 Y205.616 Z8.9 F6000
;bead-perimeter_inner
;rapid-leaky
G0 X208.824 Y205.923 F6000
;bead-perimeter_outer
;rapid-leaky
G0 X125.858 Y115.606 F6000
;bead-sparse_infill
;rapid-leaky
G0 X17.771 Y7.275 F6000
;bead-sparse_infill
;Layer : 45 of 0
;rapid-leaky
G0 X103.495 Y105.956 Z9.1 F6000
;bead-perimeter_inner
;rapid-leaky
G0 X103.845 Y105.853 F6000
;bead-perimeter_outer
;rapid-leaky
G0 X15.107 Y10.865 F6000
;bead-sparse_infill
;rapid-leaky
G0 X131.139 Y115.532 F6000
;bead-sparse_infill
;Layer : 46 of 0
;rapid-leaky
G0 X208.645 Y205.604 Z9.3 F6000
;bead-perimeter_inner
;rapid-leaky
G0 X208.843 Y205.911 F6000
;bead-perimeter_outer
;rapid-leaky
G0 X125.858 Y115.606 F6000
;bead-sparse_infill
;rapid-leaky
G0 X17.771 Y7.275 F6000
;bead-sparse_infill
;Layer : 47 of 0
;rapid-leaky
G0 X103.495 Y105.956 Z9.5 F6000
;bead-perimeter_inner
;rapid-leaky
G0 X103.845 Y105.853 F6000
;bead-perimeter_outer
;rapid-leaky
G0 X15.107 Y10.865 F6000
;bead-sparse_infill
;rapid-leaky
G0 X131.139 Y115.532 F6000
;bead-sparse_infill
;Layer : 48 of 0
;rapid-leaky
G0 X208.664 Y205.592 Z9.7 F6000
;bead-perimeter_inner
;rapid-leaky
G0 X208.862 Y205.899 F6000
;bead-perimeter_outer
;rapid-leaky
G0 X125.858 Y115.606 F6000
;bead-sparse_infill
;rapid-leaky
G0 X17.771 Y7.275 F6000
;bead-sparse_infill
;Layer : 49 of 0
;rapid-leaky
G0 X103.495 Y105.956 Z9.9 F6000
;bead-perimeter_inner
;rapid-leaky
G0 X103.845 Y105.853 F6000
;bead-perimeter_outer
;rapid-leaky
G0 X15.107 Y10.865 F6000
;bead-sparse_infill
;rapid-leaky
G0 X131.139 Y115.532 F6000
;bead-sparse_infill
;Layer : 50 of 0
;rapid-leaky
G0 X208.683 Y205.58 Z10.1 F6000
;bead-perimeter_inner
;rapid-leaky
G0 X208.881 Y205.887 F6000
;bead-perimeter_outer
;rapid-leaky
G0 X125.858 Y115.606 F6000
;bead-sparse_infill
;rapid-leaky
G0 X17.771 Y7.275 F6000
;bead-sparse_infill
;Layer : 51 of 0
;rapid-leaky
G0 X103.495 Y105.956 Z10.3 F6000
;bead-perimeter_inner
;rapid-leaky
G0 X103.845 Y105.853 F6000
;bead-perimeter_outer
;rapid-leaky
G0 X15.107 Y10.865 F6000
;bead-sparse_infill
;rapid-leaky
G0 X131.139 Y115.532 F6000
;bead-sparse_infill
;Layer : 52 of 0
;rapid-leaky
G0 X208.701 Y205.568 Z10.5 F6000
;bead-perimeter_inner
;rapid-leaky
G0 X208.9 Y205.875 F6000
;bead-perimeter_outer
;rapid-leaky
G0 X125.858 Y115.606 F6000
;bead-sparse_infill
;rapid-leaky
G0 X17.771 Y7.275 F6000
;bead-sparse_infill
;Layer : 53 of 0
;rapid-leaky
G0 X103.495 Y105.956 Z10.7 F6000
;bead-perimeter_inner
;rapid-leaky
G0 X103.845 Y105.853 F6000
;bead-perimeter_outer
;rapid-leaky
G0 X15.107 Y10.865 F6000
;bead-sparse_infill
;rapid-leaky
G0 X131.139 Y115.532 F6000
;bead-sparse_infill
;Layer : 54 of 0
;rapid-leaky
G0 X208.721 Y205.556 Z10.9 F6000
;bead-perimeter_inner
;rapid-leaky
G0 X208.92 Y205.863 F6000
;bead-perimeter_outer
;rapid-leaky
G0 X125.858 Y115.606 F6000
;bead-sparse_infill
;rapid-leaky
G0 X17.771 Y7.275 F6000
;bead-sparse_infill
;Layer : 55 of 0
;rapid-leaky
G0 X103.495 Y105.956 Z11.1 F6000
;bead-perimeter_inner
;rapid-leaky
G0 X103.845 Y105.853 F6000
;bead-perimeter_outer
;rapid-leaky
G0 X15.107 Y10.865 F6000
;bead-sparse_infill
;rapid-leaky
G0 X131.139 Y115.532 F6000
;bead-sparse_infill
;Layer : 56 of 0
;rapid-leaky
G0 X208.74 Y205.543 Z11.3 F6000
;bead-perimeter_inner
;rapid-leaky
G0 X208.938 Y205.85 F6000
;bead-perimeter_outer
;rapid-leaky
G0 X125.858 Y115.606 F6000
;bead-sparse_infill
;rapid-leaky
G0 X17.772 Y7.275 F6000
;bead-sparse_infill
;Layer : 57 of 0
;rapid-leaky
G0 X103.495 Y105.956 Z11.5 F6000
;bead-perimeter_inner
;rapid-leaky
G0 X103.845 Y105.853 F6000
;bead-perimeter_outer
;rapid-leaky
G0 X15.109 Y10.865 F6000
;bead-sparse_infill
;rapid-leaky
G0 X131.139 Y115.532 F6000
;bead-sparse_infill
;Layer : 58 of 0
;rapid-leaky
G0 X205.653 Y207.352 Z11.7 F6000
;bead-perimeter_inner
;rapid-leaky
G0 X205.823 Y207.675 F6000
;bead-perimeter_outer
;rapid-dry
G0 X215.24 Y200.045 F6000
;bead-solid_infill
;rapid-dry
G0 X106.399 Y91.203 F6000
;bead-solid_infill
;Layer : 59 of 0
;rapid-leaky
G0 X185.02 Y207.024 Z11.9 F6000
;bead-perimeter_inner
;rapid-leaky
G0 X184.778 Y207.297 F6000
;bead-perimeter_outer
;rapid-dry
G0 X213.616 Y201.491 F6000
;bead-solid_infill
;Layer : 60 of 0
;rapid-leaky
G0 X20.149 Y4.09 Z12.1 F6000
;bead-perimeter_inner
;rapid-leaky
G0 X20.141 Y3.566 F6000
;bead-perimeter_outer
;rapid-leaky
G0 X106.397 Y91.201 F6000
;bead-solid_infill
;rapid-dry
G0 X215.24 Y200.045 F6000
;bead-solid_infill
;move to park position
G0 X109.596 Y114.765 Z240 F6000
G0 X0 Y0 F6000
;--------------------------------
M107
M104 S0 T0
M140 S0
;
;--------------------------------
;Disable stepper on all axis except z
M84 X Y E
;END OF GCODE
